icons/modern/keycap-10.svg

<svg width="32" height="33" viewBox="0 0 32 33" fill="none" xmlns="http://www.w3.org/2000/svg">
<g clip-path="url(#clip0_18590_3401)">
<g filter="url(#filter0_ii_18590_3401)">
<rect x="1.65088" y="1.80798" width="27.875" height="27.875" rx="3.6" fill="url(#paint0_linear_18590_3401)"/>
<rect x="1.65088" y="1.80798" width="27.875" height="27.875" rx="3.6" fill="url(#paint1_radial_18590_3401)"/>
</g>
<g filter="url(#filter1_f_18590_3401)">
<path d="M27.8384 4.30798V27.183" stroke="url(#paint2_linear_18590_3401)" stroke-width="1.5" stroke-linecap="round"/>
</g>
<g filter="url(#filter2_f_18590_3401)">
<path d="M5.11475 3.62048H26.896" stroke="url(#paint3_linear_18590_3401)" stroke-width="1.5" stroke-linecap="round"/>
</g>
<g filter="url(#filter3_f_18590_3401)">
<path d="M19.9255 7.49548C16.6118 7.49548 13.9255 10.1818 13.9255 13.4955V17.9955C13.9255 21.3092 16.6118 23.9955 19.9255 23.9955C23.2392 23.9955 25.9255 21.3092 25.9255 17.9955V13.4955C25.9255 10.1818 23.2392 7.49548 19.9255 7.49548ZM17.4255 13.4955C17.4255 12.1148 18.5448 10.9955 19.9255 10.9955C21.3062 10.9955 22.4255 12.1148 22.4255 13.4955V17.9955C22.4255 19.3762 21.3062 20.4955 19.9255 20.4955C18.5448 20.4955 17.4255 19.3762 17.4255 17.9955V13.4955Z" fill="#579FFF"/>
<path d="M11.9255 9.24554C11.9255 8.52994 11.4898 7.88644 10.8254 7.62069C10.1609 7.35494 9.40166 7.5205 8.90817 8.03872L5.73391 11.3721C5.0674 12.072 5.09448 13.1797 5.7944 13.8462C6.49432 14.5127 7.60202 14.4856 8.26853 13.7857V13.7857C8.3252 13.7262 8.42548 13.7663 8.42548 13.8485V22.2455C8.42548 23.212 9.20898 23.9955 10.1755 23.9955C11.142 23.9955 11.9255 23.212 11.9255 22.2455V9.24554Z" fill="#579FFF"/>
</g>
<g filter="url(#filter4_ii_18590_3401)">
<path d="M19.9255 7.49548C16.6118 7.49548 13.9255 10.1818 13.9255 13.4955V17.9955C13.9255 21.3092 16.6118 23.9955 19.9255 23.9955C23.2392 23.9955 25.9255 21.3092 25.9255 17.9955V13.4955C25.9255 10.1818 23.2392 7.49548 19.9255 7.49548ZM17.4255 13.4955C17.4255 12.1148 18.5448 10.9955 19.9255 10.9955C21.3062 10.9955 22.4255 12.1148 22.4255 13.4955V17.9955C22.4255 19.3762 21.3062 20.4955 19.9255 20.4955C18.5448 20.4955 17.4255 19.3762 17.4255 17.9955V13.4955Z" fill="#FCF2FF"/>
<path d="M11.9255 9.24554C11.9255 8.52994 11.4898 7.88644 10.8254 7.62069C10.1609 7.35494 9.40166 7.5205 8.90817 8.03872L5.73391 11.3721C5.0674 12.072 5.09448 13.1797 5.7944 13.8462C6.49432 14.5127 7.60202 14.4856 8.26853 13.7857V13.7857C8.3252 13.7262 8.42548 13.7663 8.42548 13.8485V22.2455C8.42548 23.212 9.20898 23.9955 10.1755 23.9955C11.142 23.9955 11.9255 23.212 11.9255 22.2455V9.24554Z" fill="#FCF2FF"/>
</g>
</g>
<defs>
<filter id="filter0_ii_18590_3401" x="1.65088" y="0.807983" width="28.875" height="28.875" filterUnits="userSpaceOnUse" color-interpolation-filters="sRGB">
<feFlood flood-opacity="0" result="BackgroundImageFix"/>
<feBlend mode="normal" in="SourceGraphic" in2="BackgroundImageFix" result="shape"/>
<feColorMatrix in="SourceAlpha" type="matrix" values="0 0 0 0 0 0 0 0 0 0 0 0 0 0 0 0 0 0 127 0" result="hardAlpha"/>
<feOffset dx="1" dy="-1"/>
<feGaussianBlur stdDeviation="1.5"/>
<feComposite in2="hardAlpha" operator="arithmetic" k2="-1" k3="1"/>
<feColorMatrix type="matrix" values="0 0 0 0 0.188235 0 0 0 0 0.470588 0 0 0 0 0.843137 0 0 0 1 0"/>
<feBlend mode="normal" in2="shape" result="effect1_innerShadow_18590_3401"/>
<feColorMatrix in="SourceAlpha" type="matrix" values="0 0 0 0 0 0 0 0 0 0 0 0 0 0 0 0 0 0 127 0" result="hardAlpha"/>
<feOffset dy="-1"/>
<feGaussianBlur stdDeviation="1.5"/>
<feComposite in2="hardAlpha" operator="arithmetic" k2="-1" k3="1"/>
<feColorMatrix type="matrix" values="0 0 0 0 0.27451 0 0 0 0 0.34902 0 0 0 0 0.8 0 0 0 1 0"/>
<feBlend mode="normal" in2="effect1_innerShadow_18590_3401" result="effect2_innerShadow_18590_3401"/>
</filter>
<filter id="filter1_f_18590_3401" x="25.0884" y="1.55798" width="5.5" height="28.375" filterUnits="userSpaceOnUse" color-interpolation-filters="sRGB">
<feFlood flood-opacity="0" result="BackgroundImageFix"/>
<feBlend mode="normal" in="SourceGraphic" in2="BackgroundImageFix" result="shape"/>
<feGaussianBlur stdDeviation="1" result="effect1_foregroundBlur_18590_3401"/>
</filter>
<filter id="filter2_f_18590_3401" x="2.36475" y="0.870483" width="27.2812" height="5.5" filterUnits="userSpaceOnUse" color-interpolation-filters="sRGB">
<feFlood flood-opacity="0" result="BackgroundImageFix"/>
<feBlend mode="normal" in="SourceGraphic" in2="BackgroundImageFix" result="shape"/>
<feGaussianBlur stdDeviation="1" result="effect1_foregroundBlur_18590_3401"/>
</filter>
<filter id="filter3_f_18590_3401" x="4.25122" y="6.49548" width="22.6743" height="18.5001" filterUnits="userSpaceOnUse" color-interpolation-filters="sRGB">
<feFlood flood-opacity="0" result="BackgroundImageFix"/>
<feBlend mode="normal" in="SourceGraphic" in2="BackgroundImageFix" result="shape"/>
<feGaussianBlur stdDeviation="0.5" result="effect1_foregroundBlur_18590_3401"/>
</filter>
<filter id="filter4_ii_18590_3401" x="4.25122" y="7.09548" width="22.0743" height="17.9001" filterUnits="userSpaceOnUse" color-interpolation-filters="sRGB">
<feFlood flood-opacity="0" result="BackgroundImageFix"/>
<feBlend mode="normal" in="SourceGraphic" in2="BackgroundImageFix" result="shape"/>
<feColorMatrix in="SourceAlpha" type="matrix" values="0 0 0 0 0 0 0 0 0 0 0 0 0 0 0 0 0 0 127 0" result="hardAlpha"/>
<feOffset dx="-1" dy="1"/>
<feGaussianBlur stdDeviation="1"/>
<feComposite in2="hardAlpha" operator="arithmetic" k2="-1" k3="1"/>
<feColorMatrix type="matrix" values="0 0 0 0 0.866667 0 0 0 0 0.819608 0 0 0 0 0.941176 0 0 0 1 0"/>
<feBlend mode="normal" in2="shape" result="effect1_innerShadow_18590_3401"/>
<feColorMatrix in="SourceAlpha" type="matrix" values="0 0 0 0 0 0 0 0 0 0 0 0 0 0 0 0 0 0 127 0" result="hardAlpha"/>
<feOffset dx="0.4" dy="-0.4"/>
<feGaussianBlur stdDeviation="0.5"/>
<feComposite in2="hardAlpha" operator="arithmetic" k2="-1" k3="1"/>
<feColorMatrix type="matrix" values="0 0 0 0 1 0 0 0 0 0.988235 0 0 0 0 1 0 0 0 1 0"/>
<feBlend mode="normal" in2="effect1_innerShadow_18590_3401" result="effect2_innerShadow_18590_3401"/>
</filter>
<linearGradient id="paint0_linear_18590_3401" x1="15.5884" y1="5.38249" x2="15.5884" y2="38.6352" gradientUnits="userSpaceOnUse">
<stop stop-color="#5CB7FF"/>
<stop offset="1" stop-color="#4878DD"/>
</linearGradient>
<radialGradient id="paint1_radial_18590_3401" cx="0" cy="0" r="1" gradientUnits="userSpaceOnUse" gradientTransform="translate(27.3071 3.90173) rotate(136.771) scale(2.14444 2.50466)">
<stop stop-color="#7BD7FF"/>
<stop offset="1" stop-color="#7BD7FF" stop-opacity="0"/>
</radialGradient>
<linearGradient id="paint2_linear_18590_3401" x1="28.3384" y1="4.30798" x2="28.3384" y2="27.183" gradientUnits="userSpaceOnUse">
<stop stop-color="#7FD9FF"/>
<stop offset="1" stop-color="#639DF4"/>
</linearGradient>
<linearGradient id="paint3_linear_18590_3401" x1="28.0522" y1="3.87051" x2="2.521" y2="3.87051" gradientUnits="userSpaceOnUse">
<stop stop-color="#7DD8FF"/>
<stop offset="1" stop-color="#5DB6FF"/>
</linearGradient>
<clipPath id="clip0_18590_3401">
<rect width="32" height="32" fill="white" transform="translate(0 0.120483)"/>
</clipPath>
</defs>
</svg>

<svg width="32" height="33" fill="none" xmlns="http://www.w3.org/2000/svg"><g clip-path="url(#a)"><g filter="url(#b)"><rect x="1.651" y="1.808" width="27.875" height="27.875" rx="3.6" fill="url(#c)"/><rect x="1.651" y="1.808" width="27.875" height="27.875" rx="3.6" fill="url(#d)"/></g><g filter="url(#e)"><path d="M27.838 4.308v22.875" stroke="url(#f)" stroke-width="1.5" stroke-linecap="round"/></g><g filter="url(#g)"><path d="M5.115 3.62h21.781" stroke="url(#h)" stroke-width="1.5" stroke-linecap="round"/></g><g filter="url(#i)" fill="#579FFF"><path d="M19.925 7.495a6 6 0 0 0-6 6v4.5a6 6 0 0 0 12 0v-4.5a6 6 0 0 0-6-6Zm-2.5 6a2.5 2.5 0 0 1 5 0v4.5a2.5 2.5 0 0 1-5 0v-4.5ZM11.925 9.246a1.75 1.75 0 0 0-3.017-1.207l-3.174 3.333a1.75 1.75 0 1 0 2.535 2.414.091.091 0 0 1 .156.063v8.396a1.75 1.75 0 0 0 3.5 0v-13Z"/></g><g filter="url(#j)" fill="#FCF2FF"><path d="M19.925 7.495a6 6 0 0 0-6 6v4.5a6 6 0 0 0 12 0v-4.5a6 6 0 0 0-6-6Zm-2.5 6a2.5 2.5 0 0 1 5 0v4.5a2.5 2.5 0 0 1-5 0v-4.5ZM11.925 9.246a1.75 1.75 0 0 0-3.017-1.207l-3.174 3.333a1.75 1.75 0 1 0 2.535 2.414.091.091 0 0 1 .156.063v8.396a1.75 1.75 0 0 0 3.5 0v-13Z"/></g></g><defs><filter id="b" x="1.651" y=".808" width="28.875" height="28.875" filterUnits="userSpaceOnUse" color-interpolation-filters="sRGB"><feFlood flood-opacity="0" result="BackgroundImageFix"/><feBlend in="SourceGraphic" in2="BackgroundImageFix" result="shape"/><feColorMatrix in="SourceAlpha" values="0 0 0 0 0 0 0 0 0 0 0 0 0 0 0 0 0 0 127 0" result="hardAlpha"/><feOffset dx="1" dy="-1"/><feGaussianBlur stdDeviation="1.5"/><feComposite in2="hardAlpha" operator="arithmetic" k2="-1" k3="1"/><feColorMatrix values="0 0 0 0 0.188235 0 0 0 0 0.470588 0 0 0 0 0.843137 0 0 0 1 0"/><feBlend in2="shape" result="effect1_innerShadow_18590_3401"/><feColorMatrix in="SourceAlpha" values="0 0 0 0 0 0 0 0 0 0 0 0 0 0 0 0 0 0 127 0" result="hardAlpha"/><feOffset dy="-1"/><feGaussianBlur stdDeviation="1.5"/><feComposite in2="hardAlpha" operator="arithmetic" k2="-1" k3="1"/><feColorMatrix values="0 0 0 0 0.27451 0 0 0 0 0.34902 0 0 0 0 0.8 0 0 0 1 0"/><feBlend in2="effect1_innerShadow_18590_3401" result="effect2_innerShadow_18590_3401"/></filter><filter id="e" x="25.088" y="1.558" width="5.5" height="28.375" filterUnits="userSpaceOnUse" color-interpolation-filters="sRGB"><feFlood flood-opacity="0" result="BackgroundImageFix"/><feBlend in="SourceGraphic" in2="BackgroundImageFix" result="shape"/><feGaussianBlur stdDeviation="1" result="effect1_foregroundBlur_18590_3401"/></filter><filter id="g" x="2.365" y=".87" width="27.281" height="5.5" filterUnits="userSpaceOnUse" color-interpolation-filters="sRGB"><feFlood flood-opacity="0" result="BackgroundImageFix"/><feBlend in="SourceGraphic" in2="BackgroundImageFix" result="shape"/><feGaussianBlur stdDeviation="1" result="effect1_foregroundBlur_18590_3401"/></filter><filter id="i" x="4.251" y="6.495" width="22.674" height="18.5" filterUnits="userSpaceOnUse" color-interpolation-filters="sRGB"><feFlood flood-opacity="0" result="BackgroundImageFix"/><feBlend in="SourceGraphic" in2="BackgroundImageFix" result="shape"/><feGaussianBlur stdDeviation=".5" result="effect1_foregroundBlur_18590_3401"/></filter><filter id="j" x="4.251" y="7.095" width="22.074" height="17.9" filterUnits="userSpaceOnUse" color-interpolation-filters="sRGB"><feFlood flood-opacity="0" result="BackgroundImageFix"/><feBlend in="SourceGraphic" in2="BackgroundImageFix" result="shape"/><feColorMatrix in="SourceAlpha" values="0 0 0 0 0 0 0 0 0 0 0 0 0 0 0 0 0 0 127 0" result="hardAlpha"/><feOffset dx="-1" dy="1"/><feGaussianBlur stdDeviation="1"/><feComposite in2="hardAlpha" operator="arithmetic" k2="-1" k3="1"/><feColorMatrix values="0 0 0 0 0.866667 0 0 0 0 0.819608 0 0 0 0 0.941176 0 0 0 1 0"/><feBlend in2="shape" result="effect1_innerShadow_18590_3401"/><feColorMatrix in="SourceAlpha" values="0 0 0 0 0 0 0 0 0 0 0 0 0 0 0 0 0 0 127 0" result="hardAlpha"/><feOffset dx=".4" dy="-.4"/><feGaussianBlur stdDeviation=".5"/><feComposite in2="hardAlpha" operator="arithmetic" k2="-1" k3="1"/><feColorMatrix values="0 0 0 0 1 0 0 0 0 0.988235 0 0 0 0 1 0 0 0 1 0"/><feBlend in2="effect1_innerShadow_18590_3401" result="effect2_innerShadow_18590_3401"/></filter><linearGradient id="c" x1="15.588" y1="5.382" x2="15.588" y2="38.635" gradientUnits="userSpaceOnUse"><stop stop-color="#5CB7FF"/><stop offset="1" stop-color="#4878DD"/></linearGradient><linearGradient id="f" x1="28.338" y1="4.308" x2="28.338" y2="27.183" gradientUnits="userSpaceOnUse"><stop stop-color="#7FD9FF"/><stop offset="1" stop-color="#639DF4"/></linearGradient><linearGradient id="h" x1="28.052" y1="3.871" x2="2.521" y2="3.871" gradientUnits="userSpaceOnUse"><stop stop-color="#7DD8FF"/><stop offset="1" stop-color="#5DB6FF"/></linearGradient><radialGradient id="d" cx="0" cy="0" r="1" gradientUnits="userSpaceOnUse" gradientTransform="matrix(-1.56249 1.46876 -1.71548 -1.82495 27.307 3.902)"><stop stop-color="#7BD7FF"/><stop offset="1" stop-color="#7BD7FF" stop-opacity="0"/></radialGradient><clipPath id="a"><path fill="#fff" transform="translate(0 .12)" d="M0 0h32v32H0z"/></clipPath></defs></svg>
